images/ICONOS/PORQUE/CONTACTO.svg

<svg width="41" height="42" viewBox="0 0 41 42" fill="none" xmlns="http://www.w3.org/2000/svg">
<circle cx="20.6795" cy="21.0374" r="20.3202" fill="#30E35E"/>
<path d="M20.7795 33.789C20.464 33.4585 20.1709 33.1473 19.8744 32.841C19.153 32.0972 18.4344 31.3513 17.7029 30.618C17.6083 30.5228 17.4449 30.4541 17.3125 30.4534C15.9873 30.4415 14.6621 30.4471 13.3369 30.4457C11.9874 30.4436 11.0607 29.4936 11.06 28.1087C11.0587 22.9965 11.058 17.8843 11.0593 12.7721C11.06 11.4019 11.9887 10.4455 13.3207 10.4455C18.3013 10.4441 23.2813 10.4434 28.2619 10.4455C29.5776 10.4462 30.5104 11.4046 30.5111 12.7575C30.5131 17.8788 30.5131 22.9993 30.5111 28.1205C30.5104 29.4901 29.5817 30.4436 28.2484 30.4457C26.9144 30.4478 25.5811 30.4422 24.2471 30.4534C24.1222 30.4541 23.9668 30.5193 23.8784 30.6096C22.851 31.6514 21.8338 32.7042 20.7795 33.789ZM27.2697 25.9933C27.2697 25.6808 27.2636 25.3953 27.271 25.1092C27.2846 24.5966 27.1326 24.1327 26.7814 23.7841C26.4328 23.4382 26.0593 23.0861 25.6351 22.859C23.3731 21.6499 20.9963 21.2214 18.4844 21.8693C17.3915 22.1513 16.3405 22.5284 15.399 23.1917C14.4223 23.8792 14.1461 24.8314 14.3419 25.9926C18.6329 25.9933 22.9341 25.9933 27.2697 25.9933ZM20.7234 14.1132C19.072 14.1889 17.8069 15.5432 17.869 17.169C17.9339 18.8705 19.2692 20.1845 20.8605 20.1123C22.4998 20.038 23.7656 18.6712 23.7041 17.0412C23.6399 15.3584 22.2992 14.041 20.7234 14.1132Z" fill="white"/>
</svg>

<svg xmlns="http://www.w3.org/2000/svg" width="41" height="42" fill="none"><circle cx="20.68" cy="21.037" r="20.32" fill="#30E35E"/><path fill="#fff" d="M20.78 33.789c-.316-.33-.61-.642-.906-.948-.721-.744-1.44-1.49-2.171-2.223a.607.607 0 0 0-.39-.165c-1.326-.011-2.65-.006-3.976-.007-1.35-.002-2.276-.952-2.277-2.337-.001-5.113-.002-10.225 0-15.337 0-1.37.929-2.327 2.26-2.327 4.981 0 9.961-.002 14.942 0 1.316.001 2.248.96 2.25 2.313V28.12c-.002 1.37-.93 2.323-2.264 2.325-1.334.002-2.667-.004-4 .007a.57.57 0 0 0-.37.157c-1.027 1.041-2.044 2.094-3.099 3.179Zm6.49-7.796c0-.312-.006-.598.001-.884.014-.512-.138-.976-.49-1.325-.348-.346-.722-.698-1.146-.925-2.262-1.21-4.639-1.638-7.15-.99-1.093.282-2.145.66-3.086 1.323-.977.687-1.253 1.64-1.057 2.8l12.928.001Zm-6.547-11.88c-1.651.076-2.916 1.43-2.854 3.056.065 1.701 1.4 3.015 2.991 2.943a2.966 2.966 0 0 0 2.844-3.07c-.064-1.684-1.405-3.001-2.98-2.929Z"/></svg>
